docs/img/about/icon-1.svg

<svg width="70" height="71" viewBox="0 0 70 71" fill="none" xmlns="http://www.w3.org/2000/svg">
<path d="M34.9999 6.8269C18.9174 6.8269 5.83325 19.9111 5.83325 35.9936V48.0773C5.83325 51.064 8.4495 53.4936 11.6666 53.4936H14.5833C15.3568 53.4936 16.0987 53.1863 16.6456 52.6393C17.1926 52.0923 17.4999 51.3505 17.4999 50.5769V35.5765C17.4999 34.8029 17.1926 34.0611 16.6456 33.5141C16.0987 32.9671 15.3568 32.6598 14.5833 32.6598H11.9349C13.5566 21.3723 23.2691 12.6602 34.9999 12.6602C46.7308 12.6602 56.4433 21.3723 58.0649 32.6598H55.4166C54.643 32.6598 53.9012 32.9671 53.3542 33.5141C52.8072 34.0611 52.4999 34.8029 52.4999 35.5765V53.4936C52.4999 56.7107 49.8837 59.3269 46.6666 59.3269H40.8333V56.4102H29.1666V65.1602H46.6666C53.1008 65.1602 58.3333 59.9277 58.3333 53.4936C61.5503 53.4936 64.1666 51.064 64.1666 48.0773V35.9936C64.1666 19.9111 51.0824 6.8269 34.9999 6.8269Z" fill="white"/>
</svg>

<svg width="70" height="71" fill="none" xmlns="http://www.w3.org/2000/svg"><path d="M35 6.827c-16.083 0-29.167 13.084-29.167 29.167v12.083c0 2.987 2.617 5.417 5.834 5.417h2.916a2.916 2.916 0 002.917-2.917v-15a2.917 2.917 0 00-2.917-2.917h-2.648c1.622-11.288 11.334-20 23.065-20 11.73 0 21.443 8.712 23.065 20h-2.648a2.917 2.917 0 00-2.917 2.917v17.917a5.84 5.84 0 01-5.833 5.833h-5.834V56.41H29.167v8.75h17.5c6.434 0 11.666-5.232 11.666-11.666 3.217 0 5.834-2.43 5.834-5.417V35.994C64.167 19.91 51.082 6.827 35 6.827z" fill="#fff"/></svg>
